public/assets/whatsapp.svg

<svg width="142" height="50" viewBox="0 0 142 50" fill="none" xmlns="http://www.w3.org/2000/svg">
<rect x="0.5" y="0.5" width="141" height="49" rx="6.5" fill="white" stroke="url(#paint0_linear_2329_163)"/>
<path d="M60.129 30L57.21 19.92H58.512L60.752 27.893L62.985 19.927L64.294 19.92L66.534 27.893L68.767 19.92H70.076L67.157 30H65.911L63.643 22.097L61.375 30H60.129ZM76.6521 30V26.213C76.6521 25.8537 76.6194 25.5083 76.5541 25.177C76.4934 24.8457 76.3837 24.5493 76.2251 24.288C76.0711 24.022 75.8611 23.812 75.5951 23.658C75.3337 23.504 75.0024 23.427 74.6011 23.427C74.2884 23.427 74.0037 23.4807 73.7471 23.588C73.4951 23.6907 73.2781 23.8493 73.0961 24.064C72.9141 24.2787 72.7717 24.5493 72.6691 24.876C72.5711 25.198 72.5221 25.5783 72.5221 26.017L71.7031 25.765C71.7031 25.0323 71.8337 24.4047 72.0951 23.882C72.3611 23.3547 72.7321 22.951 73.2081 22.671C73.6887 22.3863 74.2534 22.244 74.9021 22.244C75.3921 22.244 75.8097 22.321 76.1551 22.475C76.5004 22.629 76.7874 22.8343 77.0161 23.091C77.2447 23.343 77.4244 23.6277 77.5551 23.945C77.6857 24.2577 77.7767 24.5773 77.8281 24.904C77.8841 25.226 77.9121 25.5317 77.9121 25.821V30H76.6521ZM71.2621 30V19.92H72.3821V25.485H72.5221V30H71.2621ZM81.881 30.21C81.3163 30.21 80.8426 30.1073 80.46 29.902C80.082 29.692 79.795 29.4167 79.599 29.076C79.4076 28.7353 79.312 28.362 79.312 27.956C79.312 27.5593 79.3866 27.2163 79.536 26.927C79.69 26.633 79.9046 26.3903 80.18 26.199C80.4553 26.003 80.7843 25.849 81.167 25.737C81.5263 25.639 81.9276 25.555 82.371 25.485C82.819 25.4103 83.2716 25.3427 83.729 25.282C84.1863 25.2213 84.6133 25.163 85.01 25.107L84.562 25.366C84.576 24.694 84.4406 24.197 84.156 23.875C83.876 23.553 83.3906 23.392 82.7 23.392C82.2426 23.392 81.8413 23.497 81.496 23.707C81.1553 23.9123 80.915 24.2483 80.775 24.715L79.592 24.358C79.774 23.6953 80.1263 23.175 80.649 22.797C81.1716 22.419 81.86 22.23 82.714 22.23C83.4 22.23 83.988 22.3537 84.478 22.601C84.9726 22.8437 85.3273 23.2123 85.542 23.707C85.6493 23.9403 85.717 24.1947 85.745 24.47C85.773 24.7407 85.787 25.0253 85.787 25.324V30H84.681V28.187L84.94 28.355C84.6553 28.9663 84.2563 29.4283 83.743 29.741C83.2343 30.0537 82.6136 30.21 81.881 30.21ZM82.07 29.167C82.518 29.167 82.9053 29.0877 83.232 28.929C83.5633 28.7657 83.8293 28.5533 84.03 28.292C84.2306 28.026 84.3613 27.7367 84.422 27.424C84.492 27.1907 84.5293 26.9317 84.534 26.647C84.5433 26.3577 84.548 26.136 84.548 25.982L84.982 26.171C84.576 26.227 84.177 26.2807 83.785 26.332C83.393 26.3833 83.022 26.4393 82.672 26.5C82.322 26.556 82.007 26.6237 81.727 26.703C81.5216 26.7683 81.328 26.8523 81.146 26.955C80.9686 27.0577 80.824 27.1907 80.712 27.354C80.6046 27.5127 80.551 27.711 80.551 27.949C80.551 28.1543 80.6023 28.3503 80.705 28.537C80.8123 28.7237 80.9756 28.8753 81.195 28.992C81.419 29.1087 81.7106 29.167 82.07 29.167ZM91.828 30C91.38 30.0887 90.9366 30.1237 90.498 30.105C90.064 30.091 89.6766 30.0047 89.336 29.846C88.9953 29.6827 88.7363 29.4307 88.559 29.09C88.4096 28.7913 88.328 28.4903 88.314 28.187C88.3046 27.879 88.3 27.5313 88.3 27.144V20.34H89.546V27.088C89.546 27.396 89.5483 27.6597 89.553 27.879C89.5623 28.0983 89.6113 28.2873 89.7 28.446C89.868 28.7447 90.134 28.9197 90.498 28.971C90.8666 29.0223 91.31 29.0083 91.828 28.929V30ZM86.767 23.469V22.44H91.828V23.469H86.767ZM96.2188 30.203C95.3181 30.203 94.5785 30.007 93.9998 29.615C93.4258 29.2183 93.0735 28.6653 92.9428 27.956L94.2168 27.753C94.3195 28.1637 94.5551 28.4903 94.9238 28.733C95.2925 28.971 95.7498 29.09 96.2958 29.09C96.8138 29.09 97.2198 28.9827 97.5138 28.768C97.8078 28.5533 97.9548 28.2617 97.9548 27.893C97.9548 27.6783 97.9058 27.5057 97.8078 27.375C97.7098 27.2397 97.5068 27.1137 97.1988 26.997C96.8955 26.8803 96.4358 26.7403 95.8198 26.577C95.1525 26.3997 94.6275 26.2153 94.2448 26.024C93.8621 25.8327 93.5891 25.611 93.4258 25.359C93.2625 25.107 93.1808 24.8013 93.1808 24.442C93.1808 23.9987 93.3021 23.6113 93.5448 23.28C93.7875 22.944 94.1258 22.685 94.5598 22.503C94.9985 22.321 95.5071 22.23 96.0858 22.23C96.6598 22.23 97.1731 22.321 97.6258 22.503C98.0785 22.685 98.4425 22.944 98.7178 23.28C98.9978 23.6113 99.1635 23.9987 99.2148 24.442L97.9408 24.673C97.8801 24.267 97.6841 23.9473 97.3528 23.714C97.0261 23.4807 96.6038 23.357 96.0858 23.343C95.5958 23.3243 95.1968 23.4107 94.8888 23.602C94.5855 23.7933 94.4338 24.0523 94.4338 24.379C94.4338 24.561 94.4898 24.7173 94.6018 24.848C94.7185 24.9787 94.9308 25.1023 95.2388 25.219C95.5515 25.3357 96.0041 25.4687 96.5968 25.618C97.2641 25.786 97.7891 25.9703 98.1718 26.171C98.5591 26.367 98.8345 26.6003 98.9978 26.871C99.1611 27.137 99.2428 27.466 99.2428 27.858C99.2428 28.586 98.9745 29.16 98.4378 29.58C97.9011 29.9953 97.1615 30.203 96.2188 30.203ZM102.936 30.21C102.371 30.21 101.897 30.1073 101.515 29.902C101.137 29.692 100.85 29.4167 100.654 29.076C100.462 28.7353 100.367 28.362 100.367 27.956C100.367 27.5593 100.441 27.2163 100.591 26.927C100.745 26.633 100.959 26.3903 101.235 26.199C101.51 26.003 101.839 25.849 102.222 25.737C102.581 25.639 102.982 25.555 103.426 25.485C103.874 25.4103 104.326 25.3427 104.784 25.282C105.241 25.2213 105.668 25.163 106.065 25.107L105.617 25.366C105.631 24.694 105.495 24.197 105.211 23.875C104.931 23.553 104.445 23.392 103.755 23.392C103.297 23.392 102.896 23.497 102.551 23.707C102.21 23.9123 101.97 24.2483 101.83 24.715L100.647 24.358C100.829 23.6953 101.181 23.175 101.704 22.797C102.226 22.419 102.915 22.23 103.769 22.23C104.455 22.23 105.043 22.3537 105.533 22.601C106.027 22.8437 106.382 23.2123 106.597 23.707C106.704 23.9403 106.772 24.1947 106.8 24.47C106.828 24.7407 106.842 25.0253 106.842 25.324V30H105.736V28.187L105.995 28.355C105.71 28.9663 105.311 29.4283 104.798 29.741C104.289 30.0537 103.668 30.21 102.936 30.21ZM103.125 29.167C103.573 29.167 103.96 29.0877 104.287 28.929C104.618 28.7657 104.884 28.5533 105.085 28.292C105.285 28.026 105.416 27.7367 105.477 27.424C105.547 27.1907 105.584 26.9317 105.589 26.647C105.598 26.3577 105.603 26.136 105.603 25.982L106.037 26.171C105.631 26.227 105.232 26.2807 104.84 26.332C104.448 26.3833 104.077 26.4393 103.727 26.5C103.377 26.556 103.062 26.6237 102.782 26.703C102.576 26.7683 102.383 26.8523 102.201 26.955C102.023 27.0577 101.879 27.1907 101.767 27.354C101.659 27.5127 101.606 27.711 101.606 27.949C101.606 28.1543 101.657 28.3503 101.76 28.537C101.867 28.7237 102.03 28.8753 102.25 28.992C102.474 29.1087 102.765 29.167 103.125 29.167ZM112.134 30.21C111.424 30.21 110.827 30.035 110.342 29.685C109.856 29.3303 109.488 28.852 109.236 28.25C108.988 27.6433 108.865 26.9643 108.865 26.213C108.865 25.4523 108.988 24.771 109.236 24.169C109.488 23.567 109.856 23.0933 110.342 22.748C110.832 22.4027 111.431 22.23 112.141 22.23C112.841 22.23 113.443 22.405 113.947 22.755C114.455 23.1003 114.845 23.574 115.116 24.176C115.386 24.778 115.522 25.457 115.522 26.213C115.522 26.969 115.386 27.648 115.116 28.25C114.845 28.852 114.455 29.3303 113.947 29.685C113.443 30.035 112.838 30.21 112.134 30.21ZM108.655 33.36V22.44H109.768V28.005H109.908V33.36H108.655ZM111.98 29.069C112.479 29.069 112.892 28.943 113.219 28.691C113.545 28.439 113.79 28.0983 113.954 27.669C114.117 27.235 114.199 26.7497 114.199 26.213C114.199 25.681 114.117 25.2003 113.954 24.771C113.795 24.3417 113.548 24.001 113.212 23.749C112.88 23.497 112.458 23.371 111.945 23.371C111.455 23.371 111.049 23.4923 110.727 23.735C110.405 23.973 110.164 24.3067 110.006 24.736C109.847 25.1607 109.768 25.653 109.768 26.213C109.768 26.7637 109.845 27.256 109.999 27.69C110.157 28.1193 110.4 28.4577 110.727 28.705C111.053 28.9477 111.471 29.069 111.98 29.069ZM120.528 30.21C119.819 30.21 119.222 30.035 118.736 29.685C118.251 29.3303 117.882 28.852 117.63 28.25C117.383 27.6433 117.259 26.9643 117.259 26.213C117.259 25.4523 117.383 24.771 117.63 24.169C117.882 23.567 118.251 23.0933 118.736 22.748C119.226 22.4027 119.826 22.23 120.535 22.23C121.235 22.23 121.837 22.405 122.341 22.755C122.85 23.1003 123.24 23.574 123.51 24.176C123.781 24.778 123.916 25.457 123.916 26.213C123.916 26.969 123.781 27.648 123.51 28.25C123.24 28.852 122.85 29.3303 122.341 29.685C121.837 30.035 121.233 30.21 120.528 30.21ZM117.049 33.36V22.44H118.162V28.005H118.302V33.36H117.049ZM120.374 29.069C120.874 29.069 121.287 28.943 121.613 28.691C121.94 28.439 122.185 28.0983 122.348 27.669C122.512 27.235 122.593 26.7497 122.593 26.213C122.593 25.681 122.512 25.2003 122.348 24.771C122.19 24.3417 121.942 24.001 121.606 23.749C121.275 23.497 120.853 23.371 120.339 23.371C119.849 23.371 119.443 23.4923 119.121 23.735C118.799 23.973 118.559 24.3067 118.4 24.736C118.242 25.1607 118.162 25.653 118.162 26.213C118.162 26.7637 118.239 27.256 118.393 27.69C118.552 28.1193 118.795 28.4577 119.121 28.705C119.448 28.9477 119.866 29.069 120.374 29.069Z" fill="#475367"/>
<rect x="13" y="5" width="40" height="40" rx="8" fill="white"/>
<path d="M27.1111 34.0789L27.5178 34.2807C29.176 35.2595 31.0718 35.7712 33.0011 35.7605C38.9407 35.7471 43.8208 30.8924 43.8208 24.9978C43.8208 22.1491 42.6808 19.4134 40.6535 17.3967C38.6289 15.3592 35.8628 14.2109 32.9801 14.2109C27.0677 14.2109 22.2031 19.0394 22.2031 24.9064C22.2031 24.9528 22.2031 24.9985 22.2038 25.0449C22.2216 27.0397 22.7838 28.9924 23.8305 30.6953L24.1016 31.0989L23.0172 35.0677L27.1111 34.0789Z" fill="#00E676"/>
<path d="M41.8501 16.1912C39.5422 13.8543 36.3761 12.5433 33.0794 12.5587H33.0583C26.2689 12.5587 20.6818 18.1036 20.6818 24.8417C20.6818 24.8733 20.6824 24.9042 20.6824 24.9359C20.708 27.0782 21.2668 29.181 22.3092 31.0571L20.5469 37.4475L27.1148 35.7658C28.9291 36.7544 30.9689 37.264 33.0387 37.2457C39.8533 37.2087 45.4397 31.6323 45.4356 24.8686C45.4519 21.6189 44.1607 18.4937 41.8501 16.1912ZM33.0794 35.1604C31.2447 35.1699 29.4423 34.6814 27.8671 33.7478L27.4604 33.546L23.5495 34.555L24.5662 30.7208L24.2951 30.3172C23.288 28.7034 22.7545 26.8428 22.7545 24.9446C22.7545 19.3467 27.396 14.7402 33.0367 14.7402C38.6773 14.7402 43.3188 19.3467 43.3188 24.9446C43.3188 28.4694 41.4786 31.7534 38.4611 33.6133C36.8651 34.6279 35.0086 35.165 33.1133 35.1604M39.0711 27.6938L38.3255 27.3575C38.3255 27.3575 37.241 26.8866 36.5632 26.5503C36.4955 26.5503 36.4277 26.483 36.3599 26.483C36.1928 26.4871 36.0295 26.5334 35.8854 26.6175C35.7411 26.7016 35.8177 26.6848 34.8687 27.7611C34.8044 27.8869 34.6722 27.9656 34.5299 27.9629H34.4621C34.3602 27.9459 34.2657 27.8991 34.191 27.8283L33.8521 27.6938C33.1249 27.3883 32.4591 26.9553 31.8864 26.4157C31.7509 26.2812 31.5475 26.1466 31.412 26.0121C30.9102 25.5351 30.4769 24.9919 30.1242 24.3977L30.0564 24.2632C29.9975 24.181 29.9518 24.0902 29.9208 23.9941C29.9031 23.8776 29.9271 23.7586 29.9886 23.6578C30.0503 23.5569 30.2597 23.3214 30.463 23.1196C30.6664 22.9179 30.6664 22.7833 30.802 22.6488C30.8716 22.5528 30.9198 22.443 30.9432 22.327C30.9665 22.211 30.9646 22.0913 30.9375 21.9761C30.6216 21.1057 30.2596 20.2525 29.853 19.42C29.7441 19.2518 29.5743 19.1314 29.3786 19.0836H28.633C28.4974 19.0836 28.3619 19.1509 28.2263 19.1509L28.1585 19.2182C28.023 19.2854 27.8874 19.42 27.7519 19.4872C27.6163 19.5545 27.5485 19.7563 27.413 19.8908C26.9391 20.4851 26.677 21.2184 26.6674 21.9761C26.6749 22.5091 26.7901 23.0352 27.0063 23.5233L27.0741 23.725C27.6827 25.0164 28.5338 26.1807 29.5819 27.1557L29.853 27.4247C30.0503 27.5869 30.2319 27.7671 30.3953 27.9629C31.7997 29.1757 33.4677 30.0501 35.2687 30.519C35.472 30.5863 35.7431 30.5863 35.9464 30.6535H36.6242C36.9785 30.6362 37.325 30.5445 37.6409 30.3845C37.807 30.3098 37.9656 30.2197 38.1154 30.1154L38.2509 29.9809C38.3865 29.8463 38.5221 29.7791 38.6576 29.6445C38.7901 29.5274 38.9043 29.3914 38.9965 29.2409C39.1267 28.9396 39.2182 28.6234 39.2677 28.2992V27.8283C39.2068 27.774 39.1383 27.7287 39.0643 27.6938" fill="#F7F8FA"/>
<defs>
<linearGradient id="paint0_linear_2329_163" x1="71" y1="1" x2="71" y2="49" gradientUnits="userSpaceOnUse">
<stop stop-color="#E4E7EC"/>
<stop offset="1" stop-color="white"/>
</linearGradient>
</defs>
</svg>

<svg xmlns="http://www.w3.org/2000/svg" width="142" height="50" fill="none" xmlns:v="https://vecta.io/nano"><rect x=".5" y=".5" width="141" height="49" rx="6.5" fill="#fff" stroke="url(#A)"/><path d="M60.129 30L57.21 19.92h1.302l2.24 7.973 2.233-7.966 1.309-.007 2.24 7.973 2.233-7.973h1.309L67.157 30h-1.246l-2.268-7.903L61.375 30h-1.246zm16.523 0v-3.787c0-.359-.033-.705-.098-1.036a2.6 2.6 0 0 0-.329-.889 1.7 1.7 0 0 0-.63-.63c-.261-.154-.593-.231-.994-.231-.313 0-.597.054-.854.161a1.67 1.67 0 0 0-.651.476c-.182.215-.324.485-.427.812s-.147.702-.147 1.141l-.819-.252c0-.733.131-1.36.392-1.883a2.86 2.86 0 0 1 1.113-1.211c.481-.285 1.045-.427 1.694-.427.49 0 .908.077 1.253.231s.632.359.861.616a2.91 2.91 0 0 1 .539.854c.131.313.222.632.273.959a5.36 5.36 0 0 1 .084.917V30h-1.26zm-5.39 0V19.92h1.12v5.565h.14V30h-1.26zm10.619.21c-.565 0-1.038-.103-1.421-.308s-.665-.485-.861-.826-.287-.714-.287-1.12c0-.397.075-.74.224-1.029a2.01 2.01 0 0 1 .644-.728c.275-.196.604-.35.987-.462.359-.098.761-.182 1.204-.252l1.358-.203 1.281-.175-.448.259c.014-.672-.121-1.169-.406-1.491s-.765-.483-1.456-.483c-.457 0-.859.105-1.204.315s-.581.541-.721 1.008l-1.183-.357c.182-.663.534-1.183 1.057-1.561s1.211-.567 2.065-.567c.686 0 1.274.124 1.764.371s.849.611 1.064 1.106c.107.233.175.488.203.763s.042.555.042.854V30h-1.106v-1.813l.259.168c-.285.611-.684 1.073-1.197 1.386s-1.129.469-1.862.469zm.189-1.043c.448 0 .835-.079 1.162-.238s.597-.376.798-.637.331-.555.392-.868c.07-.233.107-.492.112-.777l.014-.665.434.189-1.197.161-1.113.168c-.35.056-.665.124-.945.203-.205.065-.399.149-.581.252a1.32 1.32 0 0 0-.434.399c-.107.159-.161.357-.161.595 0 .205.051.401.154.588a1.19 1.19 0 0 0 .49.455c.224.117.516.175.875.175zm9.758.833a5.6 5.6 0 0 1-1.33.105 2.95 2.95 0 0 1-1.162-.259 1.67 1.67 0 0 1-.777-.756c-.149-.299-.231-.6-.245-.903l-.014-1.043V20.34h1.246v6.748l.007.791c.009.219.058.408.147.567.168.299.434.474.798.525s.812.037 1.33-.042V30zm-5.061-6.531V22.44h5.061v1.029h-5.061zm9.452 6.734c-.901 0-1.64-.196-2.219-.588a2.48 2.48 0 0 1-1.057-1.659l1.274-.203c.103.411.338.737.707.98s.826.357 1.372.357c.518 0 .924-.107 1.218-.322s.441-.506.441-.875c0-.215-.049-.387-.147-.518s-.301-.261-.609-.378-.763-.257-1.379-.42c-.667-.177-1.192-.362-1.575-.553s-.656-.413-.819-.665-.245-.558-.245-.917c0-.443.121-.831.364-1.162s.581-.595 1.015-.777.947-.273 1.526-.273 1.087.091 1.54.273.817.441 1.092.777a2.14 2.14 0 0 1 .497 1.162l-1.274.231c-.061-.406-.257-.726-.588-.959s-.749-.357-1.267-.371c-.49-.019-.889.068-1.197.259s-.455.45-.455.777c0 .182.056.338.168.469s.329.254.637.371.765.25 1.358.399c.667.168 1.192.352 1.575.553s.663.429.826.7.245.595.245.987c0 .728-.268 1.302-.805 1.722s-1.276.623-2.219.623zm6.717.007c-.565 0-1.039-.103-1.421-.308s-.665-.485-.861-.826a2.24 2.24 0 0 1-.287-1.12c0-.397.074-.74.224-1.029s.368-.537.644-.728.604-.35.987-.462c.359-.098.76-.182 1.204-.252l1.358-.203 1.281-.175-.448.259c.014-.672-.122-1.169-.406-1.491s-.766-.483-1.456-.483c-.458 0-.859.105-1.204.315s-.581.541-.721 1.008l-1.183-.357c.182-.663.534-1.183 1.057-1.561s1.211-.567 2.065-.567c.686 0 1.274.124 1.764.371a2.16 2.16 0 0 1 1.064 1.106 2.4 2.4 0 0 1 .203.763c.028.271.042.555.042.854V30h-1.106v-1.813l.259.168c-.285.611-.684 1.073-1.197 1.386s-1.13.469-1.862.469zm.189-1.043c.448 0 .835-.079 1.162-.238s.597-.376.798-.637a2.1 2.1 0 0 0 .392-.868c.07-.233.107-.492.112-.777l.014-.665.434.189-1.197.161-1.113.168c-.35.056-.665.124-.945.203-.206.065-.399.149-.581.252s-.322.236-.434.399-.161.357-.161.595a1.2 1.2 0 0 0 .154.588c.107.187.27.338.49.455s.515.175.875.175zm9.009 1.043c-.71 0-1.307-.175-1.792-.525s-.854-.833-1.106-1.435-.371-1.286-.371-2.037c0-.761.123-1.442.371-2.044s.62-1.076 1.106-1.421 1.089-.518 1.799-.518c.7 0 1.302.175 1.806.525s.898.819 1.169 1.421.406 1.281.406 2.037-.136 1.435-.406 2.037-.661 1.08-1.169 1.435-1.109.525-1.813.525zm-3.479 3.15V22.44h1.113v5.565h.14v5.355h-1.253zm3.325-4.291c.499 0 .912-.126 1.239-.378s.571-.593.735-1.022.245-.919.245-1.456-.082-1.013-.245-1.442-.406-.77-.742-1.022-.754-.378-1.267-.378c-.49 0-.896.121-1.218.364s-.563.572-.721 1.001-.238.917-.238 1.477a4.4 4.4 0 0 0 .231 1.477 2.18 2.18 0 0 0 .728 1.015c.326.243.744.364 1.253.364zm8.548 1.141c-.709 0-1.306-.175-1.792-.525s-.854-.833-1.106-1.435c-.247-.607-.371-1.286-.371-2.037 0-.761.124-1.442.371-2.044.252-.602.621-1.076 1.106-1.421s1.09-.518 1.799-.518c.7 0 1.302.175 1.806.525a3.31 3.31 0 0 1 1.169 1.421c.271.602.406 1.281.406 2.037s-.135 1.435-.406 2.037-.66 1.08-1.169 1.435c-.504.35-1.108.525-1.813.525zm-3.479 3.15V22.44h1.113v5.565h.14v5.355h-1.253zm3.325-4.291c.5 0 .913-.126 1.239-.378s.572-.593.735-1.022.245-.919.245-1.456-.081-1.013-.245-1.442c-.158-.429-.406-.77-.742-1.022-.331-.252-.753-.378-1.267-.378-.49 0-.896.121-1.218.364s-.562.572-.721 1.001-.238.917-.238 1.477a4.4 4.4 0 0 0 .231 1.477c.159.429.402.768.728 1.015s.745.364 1.253.364z" fill="#475367"/><rect x="13" y="5" width="40" height="40" rx="8" fill="#fff"/><path d="M27.111 34.079l.407.202c1.658.979 3.554 1.49 5.483 1.48 5.94-.013 10.82-4.868 10.82-10.763 0-2.849-1.14-5.584-3.167-7.601-2.025-2.037-4.791-3.186-7.673-3.186-5.912 0-10.777 4.829-10.777 10.696l.001.138c.018 1.995.58 3.948 1.627 5.65l.271.404-1.084 3.969 4.094-.989z" fill="#00e676"/><path d="M41.85 16.191a12.25 12.25 0 0 0-8.771-3.632h-.021c-6.789 0-12.377 5.545-12.377 12.283v.094a12.92 12.92 0 0 0 1.627 6.121l-1.762 6.39 6.568-1.682a12.16 12.16 0 0 0 5.924 1.48c6.815-.037 12.401-5.613 12.397-12.377.016-3.25-1.275-6.375-3.586-8.677zM33.079 35.16a10.12 10.12 0 0 1-5.212-1.413l-.407-.202-3.911 1.009 1.017-3.834-.271-.404c-1.007-1.614-1.541-3.474-1.541-5.373 0-5.598 4.642-10.204 10.282-10.204s10.282 4.606 10.282 10.204c0 3.525-1.84 6.809-4.858 8.669-1.596 1.015-3.453 1.552-5.348 1.547m5.958-7.467l-.746-.336s-1.084-.471-1.762-.807c-.068 0-.136-.067-.203-.067a.99.99 0 0 0-.475.134c-.144.084-.068.067-1.017 1.144-.064.126-.197.204-.339.202h-.068a.52.52 0 0 1-.271-.135l-.339-.134c-.727-.305-1.393-.738-1.966-1.278-.135-.135-.339-.269-.474-.404a7.53 7.53 0 0 1-1.288-1.614l-.068-.134c-.059-.082-.105-.173-.136-.269a.5.5 0 0 1 .068-.336c.062-.101.271-.336.474-.538s.203-.336.339-.471c.07-.096.118-.206.141-.322s.021-.236-.006-.351c-.316-.87-.678-1.724-1.084-2.556-.109-.168-.279-.289-.474-.336h-.746c-.136 0-.271.067-.407.067l-.068.067c-.136.067-.271.202-.407.269s-.203.269-.339.404c-.474.594-.736 1.328-.746 2.085.008.533.123 1.059.339 1.547l.068.202c.609 1.291 1.46 2.456 2.508 3.431l.271.269c.197.162.379.342.542.538 1.404 1.213 3.072 2.087 4.873 2.556.203.067.474.067.678.135h.678c.354-.017.701-.109 1.017-.269a2.94 2.94 0 0 0 .474-.269l.136-.135c.136-.135.271-.202.407-.336a1.78 1.78 0 0 0 .339-.404 3.83 3.83 0 0 0 .271-.942v-.471a.85.85 0 0 0-.203-.134" fill="#f7f8fa"/><defs><linearGradient id="A" x1="71" y1="1" x2="71" y2="49" gradientUnits="userSpaceOnUse"><stop stop-color="#e4e7ec"/><stop offset="1" stop-color="#fff"/></linearGradient></defs></svg>
